src/main/resources/icons/AllIcons/general/notificationInfo.svg

<!-- Copyright 2000-2021 JetBrains s.r.o. Use of this source code is governed by the Apache 2.0 license that can be found in the LICENSE file. -->
<svg xmlns="http://www.w3.org/2000/svg" width="24" height="24" viewBox="0 0 24 24">
  <path fill="#389FD6" fill-rule="evenodd" d="M12,22 C6.4771525,22 2,17.5228475 2,12 C2,6.4771525 6.4771525,2 12,2 C17.5228475,2 22,6.4771525 22,12 C22,17.5228475 17.5228475,22 12,22 Z M10.5,10 L10.5,18 L13.5,18 L13.5,10 L10.5,10 Z M10.5,5 L10.5,8 L13.5,8 L13.5,5 L10.5,5 Z"/>
</svg>

<svg xmlns="http://www.w3.org/2000/svg" width="24" height="24" viewBox="0 0 24 24"><rect id="frame" width="24" height="24" fill="none"/><path fill="#389FD6" fill-rule="evenodd" d="M12 22C6.477 22 2 17.523 2 12S6.477 2 12 2s10 4.477 10 10-4.477 10-10 10zm-1.5-12v8h3v-8h-3zm0-5v3h3V5h-3z"/></svg>
